!!!!SEGMENT: pl-wtm--r-1141-1--002_dobrzynski-ignacy-feliks--quartetto-op-8-andante-con-variazioni.krn
!!!cenid: 18xx:1745
!!!COM: Dobrzyński, Ignacy Feliks
!!!COM-rismid: pe30020642
!!!CDT: 1807/02/15-1867/10/09
!!!CNT: Polish
!!!OPR: Quartetto op. 8
!!!OTL: Andante con variazioni
!!!OMV: 002
!!!PDT: 1829
!!!AGN: Secular; String quartet
!!!SMS-siglum: PL-Wtm
!!!SMS-shelfmark: R 1141/1
!!!SMS-shelfwork: 001-002 M
!!!SMS-variant:
!!!SMS-altvar:
!!!NIFC-rismid: 1001056491
!!!URL-scan: http://repozytorium.nifc.pl/skany/pl-wtm-nut--r1141-1
!!!ONB-nifc: UWAGA: części Kwartetu: 1. Allegro, 2. Andante con variazioni, 3. Minuetto alla masovienne, 4. Finale
!!!OMD: Andante con variazioni
!!!key:
**kern	**dynam	**kern	**dynam	**kern	**dynam	**kern	**dynam
*part4	*part4	*part3	*part3	*part2	*part2	*part1	*part1
*staff4	*	*staff3	*	*staff2	*	*staff1	*
*>[A,A,B,B,C,C1,C,C2,D,D1,D,D2,E,F,F,G,G1,G,G2,H]	*	*>[A,A,B,B,C,C1,C,C2,D,D1,D,D2,E,F,F,G,G1,G,G2,H]	*	*>[A,A,B,B,C,C1,C,C2,D,D1,D,D2,E,F,F,G,G1,G,G2,H]	*	*>[A,A,B,B,C,C1,C,C2,D,D1,D,D2,E,F,F,G,G1,G,G2,H]	*
*>A	*	*>A	*	*>A	*	*>A	*
*Icello	*	*Ialto	*	*Icello	*	*Icello	*
*I"Violoncelle	*	*I"Alto	*	*I"Violon[o II]	*	*I"Violon[o I]	*
*clefF4	*	*clefC3	*	*clefG2	*	*clefG2	*
*k[b-]	*	*k[b-]	*	*k[b-]	*	*k[b-]	*
*F:	*	*F:	*	*F:	*	*F:	*
*M2/4	*	*M2/4	*	*M2/4	*	*M2/4	*
=1	=1	=1	=1	=1	=1	=1	=1
4r	.	4r	.	4r	.	(16.aa\LL	p
.	.	.	.	.	.	32gg\K	.
.	.	.	.	.	.	16.ff\	.
.	.	.	.	.	.	32ee\JJk	.
8r	p	8r	p	8r	p	8ff\L)	.
8BB-^/	.	(8d^<\	.	([8g^>/	.	8gg^<\J	.
=2	=2	=2	=2	=2	=2	=2	=2
!	!	!	!	!	!	!LO:N:vis=8..	!
(4C/	.	(4B-/	.	4g/]	.	(8.cc\L	.
.	.	.	.	.	.	32dd\LL	.
.	.	.	.	.	.	32ee\JJJ)	.
8F\)	.	8A/))	.	8f/)	.	16.ff\LL	.
.	.	.	.	.	.	32cc\K	.
8r	.	8r	.	8r	.	16.ff\	.
.	.	.	.	.	.	32aa\JJk	.
=3	=3	=3	=3	=3	=3	=3	=3
4r	.	8r	.	4r	.	(16.ccc\LL	.
.	.	.	.	.	.	32bb-\K	.
.	.	(16.cc\LL	.	.	.	16.aa\	.
.	.	32b-\JJk	.	.	.	32gg\JJk	.
8r	.	16.a\LL	.	8r	.	8ff\L)	.
.	.	32f\K	.	.	.	.	.
(8B-\	.	16.e\	.	(8dd\	.	(8gg\J	.
.	.	32d\JJk	<	.	<	.	<
=4	=4	=4	=4	=4	=4	=4	=4
4A\	.	(2e\)	[	[4cc#X\	[	4aa\	[
.	.	.	>	.	>	.	>
4G\)	.	.	.	8dd-X\L])	.	4bb-\)	.
.	.	.	]	.	]	.	]
.	.	.	.	([8ccn\J	.	.	.
=5	=5	=5	=5	=5	=5	=5	=5
16.F\LL	.	16.f\LL)	]	8.cc\L]	.	(16.aa\LL	.
32G\JK	.	(32e\K	.	.	.	32gg\K	.
8A\J	.	16.f\	.	.	.	16.ff\	.
.	.	.	.	16cc#X\Jk	.	.	.
.	.	32a\JJk)	.	.	.	32ee\JJk	.
8d\L	.	(8a\L	.	4dd\)	.	8ff\L)	.
8Bn\J	.	8g\J	.	.	.	8gg~\J	.
=6	=6	=6	=6	=6	=6	=6	=6
(4c\	.	8e\L	.	(8ccn\L	.	(8.cc\L	.
.	.	8g\J	.	8b-\J	.	.	.
.	.	.	.	.	.	32dd\LL	.
.	.	.	.	.	.	32ee\JJJ	.
8F\)	.	8f\)	.	8a/)	.	16.ff\LL)	.
.	.	.	.	.	.	32cc\K	.
8r	.	8r	.	8r	.	16.ff\	.
.	.	.	.	.	.	32aa\JJk	.
=7	=7	=7	=7	=7	=7	=7	=7
16.r	.	2r	.	2r	.	[4ccc\	.
32C\KLL	.	.	.	.	.	.	.
16.F\	.	.	.	.	.	.	.
32A\JJk	.	.	.	.	.	.	.
!	!	!	!	!	!	!LO:TX:t=P:problem=mixed beam	!
!	!	!	!	!	!	!LO:N:vis=16	!
4c\	.	.	.	.	.	16.ccc\LL]	.
.	.	.	.	.	.	32A/K	.
.	.	.	.	.	.	16.c/	.
.	.	.	.	.	.	32f/JJk	.
!!LO:LB:g=original
=8	=8	=8	=8	=8	=8	=8	=8
!	!	!	!	!	!	!LO:TX:t=P:problem=diminuendolike accent	!
(4C^>/	.	(4E/	.	(4B-^/	.	(8.a^/L	.
.	.	.	.	.	.	16g/Jk	.
8FF/)	.	8F/)	.	8A/)	.	8f/)	.
8r	.	8r	.	8r	.	8r	.
=9:|!|:	=9:|!|:	=9:|!|:	=9:|!|:	=9:|!|:	=9:|!|:	=9:|!|:	=9:|!|:
*>B	*	*>B	*	*>B	*	*>B	*
2r	.	4r	.	4r	.	(16.ccc\LL	.
.	.	.	.	.	.	32bb-\K	.
.	.	.	.	.	.	16.aa\	.
.	.	.	.	.	.	32gg\JJk)	.
!	!	!LO:N:vis=8.	!	!	!	!	!
.	.	16.r	.	16.r	.	4ff#X\	.
!	!	!	!LO:DY:rj	!	!LO:DY:rj	!	!
.	.	(32cc\KLL	p	(32ee-X\KLL	p	.	.
.	.	16.b-\	.	16.dd\	.	.	.
.	.	32a\JJk	.	32cc\JJk	.	.	.
=10	=10	=10	=10	=10	=10	=10	=10
4r	.	8.g\L)	.	8.b-\L)	.	8ggw\L	.
.	.	.	.	.	.	16.gg\L	.
.	.	(16f#X\Jk	.	16cc\Jk	.	.	.
.	.	.	.	.	.	32aa\JJk	.
8r	.	[4g\	.	[4b-\	.	8bb-\L	.
(8e-X^<\	.	.	.	.	.	(8cc#X^<\J	.
=11	=11	=11	=11	=11	=11	=11	=11
4d\)	.	4g\])	.	8b-/L]	.	4.dd\	.
.	.	.	.	16.g/L	.	.	.
.	.	.	.	32a/JJk	.	.	.
4D\	.	(8d\L	.	16.b-/LL	.	.	.
.	.	.	.	32cc/K	.	.	.
.	.	8c\J	.	16.a/	.	8f#X/	.
.	.	.	.	32b-/JJk	.	.	.
=12	=12	=12	=12	=12	=12	=12	=12
!	!	!	!	!	!	!LO:TX:t=P:problem=mixed beam	!
(4.E-X\	.	8.B-\L	.	2g/	.	8g/L)	.
.	.	.	.	.	.	16.gg\L	.
.	.	16c\Jk	.	.	.	.	.
.	.	.	.	.	.	32aa\JJk	.
.	.	4c#X\)	.	.	.	[4bb-\	.
8En\	.	.	.	.	.	.	.
=13	=13	=13	=13	=13	=13	=13	=13
4.F\	.	(8.d\L	.	(8f/	.	8bb-\L]	.
.	.	.	.	.	<	.	.
.	.	.	<	4b-\	.	(16.b-\L	<
.	.	16e-X\Jk	.	.	.	.	.
.	.	.	.	.	.	32cc\JJk	.
.	.	8f\L	.	.	.	16.dd\LL	.
.	.	.	.	.	.	32ee-X\K	.
8F#X\)	.	8e-\J)	.	8a/)	.	16.cc\	.
.	.	.	.	.	[[	32dd\JJk)	[[
=14	=14	=14	=14	=14	=14	=14	=14
.	.	.	[	.	.	.	.
(8G\L	.	4.d\	.	(8g/L	.	(16.b-\LL	.
.	.	.	.	.	.	32cc\K	.
8A\	.	.	.	8f#X/	.	16.a\	.
.	.	.	.	.	.	32b-\JJk)	.
8B-\)	.	.	.	8g/)	.	8g\L	f
!	!	!	!LO:DY:rj	!	!LO:DY:rj	!LO:TX:t=P:problem=accentlike diminuendo	!
(8Bn\J	.	(8d\	f > ]	(>8g#X/J	f > ]	[8ff^\J	> ]
=15	=15	=15	=15	=15	=15	=15	=15
!	!	!	!	!	!	!LO:TX:t=P:problem=mixed beam	!
4c\)	.	4.c/	p	4a/)	p	8ff\L]	.
.	.	.	.	.	.	16.f/L	p
.	.	.	.	.	.	32g/JJk	.
4C/	.	.	.	(8f/L	.	16.a/LL	.
.	.	.	.	.	.	32b-/K	.
.	.	8B-/)	.	8e/J)	.	16.g/	.
.	.	.	.	.	.	32a/JJk	.
=16	=16	=16	=16	=16	=16	=16	=16
!LO:TX:t=P:problem=mixed beam	!	!	!	!	!	!	!
8F\L	.	8A/L	.	8f/L	.	4.f/	.
8C/J	.	8A/	.	8c/	.	.	.
8FF/	.	8A/J	.	8c/J	.	.	.
8r	.	8r	.	8r	.	8r	.
!!LO:LB:g=original
=17:|!	=17:|!	=17:|!	=17:|!	=17:|!	=17:|!	=17:|!	=17:|!
*>C	*	*>C	*	*>C	*	*>C	*
*	*	*	*	*	*	*Xtuplet	*
!	!	!	!	!	!	!LO:TX:b:t=P:problem=dopisane niebieskim atramentem "wenig lebhaft"	!
!	!	!	!	!	!	!LO:TX:a:t=Var I.	!LO:DY:rj
!	!	!	!	!	!	!LO:TX:a:B:t=un poco piū moſso	!
4r	.	2r	.	4r	.	(24ccc\LL	p
.	.	.	.	.	.	24bbn\	.
.	.	.	.	.	.	24ccc\JJ	.
.	.	.	.	.	.	24ddd\LL	.
.	.	.	.	.	.	24ccc\	.
.	.	.	.	.	.	24bb-X\JJ	.
*	*	*	*	*Xtuplet	*	*	*
8r	.	.	.	(24cc\LL	p	24aa\LL	.
.	.	.	.	24bn\	.	24gg#X\	.
.	.	.	.	24cc\JJ	.	24aa\JJ	.
8BB-/	.	.	.	24dd\LL	.	24bb-\LL	.
.	.	.	.	24cc\	.	24aa\	.
.	.	.	.	24b-X\JJ)	.	24gg#\JJ)	.
=18!|:	=18!|:	=18!|:	=18!|:	=18!|:	=18!|:	=18!|:	=18!|:
(4C/	.	(4g\	.	(4b-\	.	(24ff\LL	.
.	.	.	.	.	.	24ee\	.
.	.	.	.	.	.	24dd\JJ	.
.	.	.	.	.	.	24cc\LL	.
.	.	.	.	.	.	24dd\	.
.	.	.	.	.	.	24ee\JJ)	.
*Xtuplet	*	*	*	*	*	*	*
24F/LL)	.	8f\)	.	8a\)	.	8ff\	.
(24D/	.	.	.	.	.	.	.
24C/JJ	.	.	.	.	.	.	.
24BB-/LL	.	8r	.	8r	.	(16.cc\LL	.
24AA/	.	.	.	.	.	.	.
24GG/JJ	.	.	.	.	.	.	.
.	.	.	.	.	.	32cc\JJk)	.
=19	=19	=19	=19	=19	=19	=19	=19
*	*	*Xbrackettup	*	*	*	*	*
!	!	!LO:TUP:a	!	!	!	!	!
8FF/)	.	24r	.	(4.a\	.	(4.ff\	.
.	.	(24cc\LL	.	.	.	.	.
.	.	24b-\JJ	.	.	.	.	.
*	*	*Xtuplet	*	*	*	*	*
8r	.	24a\LL	.	.	.	.	.
.	.	24g\	.	.	.	.	.
.	.	24f\JJ	.	.	.	.	.
8r	.	24e\LL	.	.	.	.	.
.	.	24d\	.	.	.	.	.
.	.	24c#X\JJ	.	.	.	.	.
8BB-/	.	24d\LL	.	8dd\)	.	8gg\	.
.	.	24e\	.	.	.	.	.
.	.	24d\JJ)	.	.	.	.	.
=20	=20	=20	=20	=20	=20	=20	=20
4AA/	.	(2e\	.	(24cc#X|\LL	.	(4aa\	.
.	.	.	.	24cc#\	.	.	.
.	.	.	.	24b#X\JJ	.	.	.
.	.	.	.	24cc#\LL	.	.	.
.	.	.	.	24dd\	.	.	.
.	.	.	.	24cc#\JJ)	.	.	.
(8GG/L	.	.	.	((8dd-X^<\L	.	24bb-\LL))	.
.	.	.	.	.	.	(24bb-\	.
.	.	.	.	.	.	24aa\JJ	.
8C/J)	.	.	.	8ccn\J)	.	24bb-\LL	.
.	.	.	.	.	.	24ccc\	.
.	.	.	.	.	.	24bb-\JJ	.
=21	=21	=21	=21	=21	=21	=21	=21
16.F\LL	.	4.f\)	.	4cc\)	.	24aa|\LL)	.
.	.	.	.	.	.	(24aa\	.
.	.	.	.	.	.	24gg\JJ	.
32G\K	.	.	.	.	.	.	.
16.A\	.	.	.	.	.	24ff|\LL)	.
.	.	.	.	.	.	(24ff\	.
.	.	.	.	.	.	24ee\JJ	.
32A\JJk	.	.	.	.	.	.	.
8B-\L	.	.	.	(8b-\L	.	24dd|\LL)	.
.	.	.	.	.	.	(24cc#X\	.
.	.	.	.	.	.	24dd\JJ	.
8Bn\J	.	([8g\	.	8dd\J	.	24gg\LL	.
.	.	.	.	.	.	24aa\	.
.	.	.	.	.	.	24gg\JJ)	.
=22	=22	=22	=22	=22	=22	=22	=22
(4c\	.	4g\]	.	4b-\	.	(24ff\LL	.
.	.	.	.	.	.	24ee\	.
.	.	.	.	.	.	24dd\JJ	.
.	.	.	.	.	.	24cc\LL	.
.	.	.	.	.	.	24dd\	.
.	.	.	.	.	.	24ee\JJ	.
8F\)	.	24f'\LL)	.	8a\)	.	8ff\L)	.
.	.	24a'\	.	.	.	.	.
.	.	24f'\JJ	.	.	.	.	.
8r	.	24c'/LL	.	8r	.	8aa\J	.
.	.	24A'/	.	.	.	.	.
.	.	24F'/JJ	.	.	.	.	.
=23	=23	=23	=23	=23	=23	=23	=23
*tuplet	*	*	*	*	*	*	*
*Xbrackettup	*	*	*	*	*	*	*
!LO:TUP:a	!	!	!	!	!	!	!
24r	.	8C/	.	2r	.	[4ccc\	.
24A\LL	.	.	.	.	.	.	.
24F\JJ	.	.	.	.	.	.	.
*Xtuplet	*	*	*	*	*	*	*
24C/LL	.	8r	.	.	.	.	.
24AA/	.	.	.	.	.	.	.
24FF/JJ	.	.	.	.	.	.	.
!	!	!	!	!	!	!LO:TX:t=P:problem=mixed beam	!
4CC^>/	.	4r	.	.	.	24ccc\LL]	.
.	.	.	.	.	.	24c/	.
.	.	.	.	.	.	24f/JJ	.
.	.	.	.	.	.	24a/LL	.
.	.	.	.	.	.	24cc/	.
.	.	.	.	.	.	24ff/JJ	.
=24	=24	=24	=24	=24	=24	=24	=24
!LO:TX:a:t=1a	!	!	!	!	!	!	!
*>C1	*	*>C1	*	*>C1	*	*>C1	*
(4C/	.	(4e\	.	(4b-\	.	24aa\LL	.
.	.	.	.	.	.	24gg\	.
.	.	.	.	.	.	24ff#X\JJ	.
.	.	.	.	.	.	24gg\LL	.
.	.	.	.	.	.	24aa\	.
.	.	.	.	.	.	24gg\JJ	.
24F\LL)	.	8f\)	.	8a\)	.	8ffn\	.
(24A\	.	.	.	.	.	.	.
24B-\JJ	.	.	.	.	.	.	.
24c\LL	.	8r	.	8r	.	8r	.
24d\	.	.	.	.	.	.	.
24e\JJ	.	.	.	.	.	.	.
=25	=25	=25	=25	=25	=25	=25	=25
8f\)	.	2ryy	.	4r	.	(24ccc\LL	.
.	.	.	.	.	.	24bbn\	.
.	.	.	.	.	.	24ccc\JJ	.
8r	.	.	.	.	.	24ddd\LL	.
.	.	.	.	.	.	24ccc\	.
!	!	!	!	!	!	!LO:TX:t=P:problem=♭ above	!
.	.	.	.	.	.	24bb-X\JJ	.
8r	.	.	.	(24cc\LL	.	24aa\LL	.
.	.	.	.	24bn\	.	24gg#X\	.
.	.	.	.	24cc\JJ	.	24aa\JJ	.
!	!	!	!	!	!	!LO:TX:t=P:problem=♭ above	!
8BB-/	.	.	.	24dd\LL	.	24bb-X\LL	.
.	.	.	.	24cc\	.	24aa\	.
!	!	!	!	!	!	!LO:TX:t=P:problem=♮ above	!
.	.	.	.	24b-X\JJ)	.	24ggn\JJ)	.
=26:|!	=26:|!	=26:|!	=26:|!	=26:|!	=26:|!	=26:|!	=26:|!
!LO:TX:a:t=2da	!	!	!	!	!	!	!
*>C2	*	*>C2	*	*>C2	*	*>C2	*
(4C/	.	(4e\	.	(4b-\	.	24aa\LL	.
.	.	.	.	.	.	24gg\	.
.	.	.	.	.	.	24ff#X\JJ	.
.	.	.	.	.	.	24gg\LL	.
.	.	.	.	.	.	24aa\	.
.	.	.	.	.	.	24gg\JJ	.
*tuplet	*	*	*	*	*	*	*
!LO:TUP:b	!	!	!	!	!	!LO:SIC:v:s=8ffn	!
24F/LL)	.	8f\)	.	8a\)	.	8ff#\	.
24C/	.	.	.	.	.	.	.
24AA/JJ	.	.	.	.	.	.	.
8FF/	.	8r	.	8r	.	8r	.
=27!|:	=27!|:	=27!|:	=27!|:	=27!|:	=27!|:	=27!|:	=27!|:
*>D	*	*>D	*	*>D	*	*>D	*
2r	.	4r	.	4r	.	(24ccc^<\LL	.
.	.	.	.	.	.	24bb-\	.
.	.	.	.	.	.	24aa\JJ	.
.	.	.	.	.	.	24bb-^<\LL	.
.	.	.	.	.	.	24aa\	.
.	.	.	.	.	.	24gg\JJ	.
.	.	(24cc\LL	.	(24ee-X\LL	.	4ff#X\)	.
.	.	24b-\	.	24dd\	.	.	.
.	.	24a\JJ	.	24cc\JJ	.	.	.
.	.	24b-\LL	.	24dd\LL	.	.	.
.	.	24cc\)	.	24ee-\	.	.	.
.	.	24a\JJ	.	24cc\JJ)	.	.	.
=28	=28	=28	=28	=28	=28	=28	=28
4r	.	(8g\L	.	(8b-\L	.	(24gg\LL	.
.	.	.	.	.	.	24ff#X\	.
.	.	.	.	.	.	24gg\JJ	.
.	.	8f#X\J	.	8cc\J	.	24aa\LL	.
.	.	.	.	.	<	24gg\	<
.	.	.	<	.	.	24aa\JJ	.
*Xtuplet	*	*	*	*	*	*	*
((24G\LL	.	[4g\	.	[4b-\	.	8bb-\L)	.
24F\	.	.	.	.	.	.	.
24E-X\JJ)	.	.	.	.	.	.	.
(24E-\LL	.	.	.	.	[	(8cc#X\J	[
24D\	.	.	.	.	.	.	.
24E-\JJ))	.	.	[	.	.	.	.
=29	=29	=29	=29	=29	=29	=29	=29
(2D\	.	8g\L])	.	4b-/]	f	24dd\LL	f
.	.	.	.	.	.	24ddd'\)	.
.	.	.	.	.	.	(24ccc'\JJ	.
.	.	8d\J	f	.	.	24bb-'\LL	.
.	.	.	.	.	.	24aa'\	.
!	!	!	!	!LO:TX:t=dim_:problem=dynamics with extention lines	!LO:HP:t=dim_:ext=u	!LO:TX:t=dim_:problem=dynamics with extention lines	!LO:HP:t=dim_:ext=u
.	.	.	.	.	>	24gg'\JJ	>
!	!	!LO:TX:t=dim_:problem=dynamics with extention lines	!LO:HP:t=dim_:ext=u	!	!	!	!
.	.	4c\	>	8a/L)	.	24ff#X'\LL	.
.	.	.	.	.	.	24ee-X'\	.
.	.	.	.	.	.	24dd'\JJ	.
.	.	.	.	8f#X/J	.	24cc'\LL	.
.	.	.	.	.	.	24b-'\	.
.	.	.	]	.	]	24a'\JJ)	]
!!LO:PB:g=original
=30	=30	=30	=30	=30	=30	=30	=30
!	!	!	!	!	!	!LO:TX:t=P:problem=mixed beam	!
(4E-X\)	.	24B-'\LL	.	(2g/	.	8f/L	.
.	.	24g'\	.	.	.	.	.
.	.	24f'\JJ	.	.	.	.	.
.	.	24e-X'\LL	.	.	.	16.gg\L	.
.	.	24d'\	.	.	.	.	.
.	.	24c'\JJ	.	.	.	.	.
.	.	.	.	.	.	32aa\JJk	.
24E-\LL)	.	(8B-\L	.	.	.	[4bb-\	.
(24D\	.	.	.	.	.	.	.
24E-\JJ	.	.	.	.	.	.	.
24En\LL	.	8c#X\J	.	.	.	.	.
24D#X\	.	.	.	.	.	.	.
24E\JJ)	.	.	.	.	.	.	.
=31	=31	=31	=31	=31	=31	=31	=31
(4.F\	.	4d\)	.	24f/LL)	.	8bb-\L]	.
.	.	.	.	(24b-/	.	.	.
.	.	.	.	24a/JJ	.	.	.
.	.	.	.	24b-\LL	.	8b-\J	.
.	.	.	.	24ee-X\	.	.	.
.	.	.	.	24dd\JJ	.	.	.
.	.	(4e-X\	.	24cc\LL	.	8a\L	.
.	.	.	.	24cc\	.	.	.
.	.	.	.	24bn\JJ	.	.	.
8F#X\)	.	.	.	24cc\LL	.	8aa\J	.
.	.	.	.	24dd\	.	.	.
.	.	.	.	24cc\JJ)	.	.	.
=32	=32	=32	=32	=32	=32	=32	=32
(8G\L	<	4.d\)	.	(24b-\LL	<	8gg\L	<
.	.	.	.	24cc\	.	.	.
.	.	.	.	24b-\JJ	.	.	.
8A\J	.	.	.	24a/LL	.	8ff#X\	.
.	.	.	.	24b-/	.	.	.
.	.	.	.	24a/JJ	.	.	.
24B-\LL	.	.	.	8g/L)	[	8gg\	.
24A\	.	.	.	.	.	.	.
24B-\JJ	[	.	.	.	>	.	[
24Bn\LL	>	(8d^<\	.	(>8g#X/J	.	[8ffn\J	.
24A#X\	.	.	.	.	.	.	>
24B\JJ	.	.	.	.	.	.	.
=33	=33	=33	=33	=33	=33	=33	=33
4c\)	]	4c/	.	4a/	]	24ff\LL]	]
.	p	.	p	.	p	24ee\	.
.	.	.	.	.	.	24dd\JJ	p
.	.	.	.	.	.	24cc\LL	.
.	.	.	.	.	.	24bn\	.
.	.	.	.	.	.	24dd\JJ	.
(4C/	.	4B-/	.	8g/L	.	24cc\LL	.
.	.	.	.	.	.	24dd\	.
.	.	.	.	.	.	24cc\JJ	.
.	.	.	.	8e/J	.	24b-X\LL	.
.	.	.	.	.	.	24g\	.
.	.	.	.	.	.	24a\JJ	.
=34	=34	=34	=34	=34	=34	=34	=34
!LO:TX:t=1a	!	!	!	!	!	!	!
*>D1	*	*>D1	*	*>D1	*	*>D1	*
*tuplet	*	*	*	*	*	*	*
!LO:TUP:a	!	!	!	!	!	!	!
24F\LL)	.	[4A/)	.	[4f/)	.	[4f/	.
24A\	.	.	.	.	.	.	.
24C'\JJ	.	.	.	.	.	.	.
*Xtuplet	*	*	*	*	*	*	*
24F'/LL	.	.	.	.	.	.	.
24AA'/	.	.	.	.	.	.	.
24C'/JJ	.	.	.	.	.	.	.
!	!	!	!	!	!	!LO:TX:t=P:problem=mixed beam	!
8FF'/	.	8A/]	.	8f/]	.	24f/LL]	.
.	.	.	.	.	.	24ff\	.
.	.	.	.	.	.	24gg\JJ	.
8r	.	8r	.	8r	.	24aa\LL	.
.	.	.	.	.	.	24bb-\	.
.	.	.	.	.	.	24bbn\JJ	.
=35:|!	=35:|!	=35:|!	=35:|!	=35:|!	=35:|!	=35:|!	=35:|!
!LO:TX:a:t=2a	!	!	!	!	!	!	!
*>D2	*	*>D2	*	*>D2	*	*>D2	*
*tuplet	*	*	*	*	*	*	*
!LO:TUP:a	!	!	!	!	!	!	!
24F\LL	.	4A/	.	4f/	.	4f/	.
24A\	.	.	.	.	.	.	.
24C\JJ	.	.	.	.	.	.	.
*Xtuplet	*	*	*	*	*	*	*
24F/LL	.	.	.	.	.	.	.
24AA/	.	.	.	.	.	.	.
24C/JJ	.	.	.	.	.	.	.
8FF/	.	4r	.	4r	.	4r	.
8r	.	.	.	.	.	.	.
!!LO:LB:g=original
=36||	=36||	=36||	=36||	=36||	=36||	=36||	=36||
*M2/4	*	*M2/4	*	*M2/4	*	*M2/4	*
*>E	*	*>E	*	*>E	*	*>E	*
!	!	!	!	!	!	!LO:TX:b:t=pizz&colon;	!
!	!	!	!	!	!	!LO:TX:a:t=Var 2.	!
!	!	!	!	!	!	!LO:TX:t=P:problem=dopisane niebieskim atramentem "wenig langsamer"	!
!	!	!	!LO:DY:rj	!	!LO:DY:rj	!LO:TX:t=P:problem=dopisane ołówkiem "Messo vivo."	!LO:DY:rj
16F\LL	.	16f\LL	pp	16cc\LL	pp	16aa\LL	pp
!	!	!LO:TX:b:t=pizz&colon;	!	!LO:TX:b:t=pizz&colon;	!	!	!
16G\	.	16e\	.	16cc\	.	16gg\	.
16A\	.	16f\	.	16cc\	.	16ff\	.
16B-\JJ	.	16g\JJ	.	16cc\JJ	.	16ee\JJ	.
16A\LL	.	16f\LL	.	16cc\LL	.	16ff\LL	.
16F\	.	16f\	.	16a\	.	16ff\	.
16BB-\	.	16d\	.	16b-\	.	16gg\	.
16BB-\JJ	.	16d\JJ	.	16b-\JJ	.	16gg\JJ	.
=37	=37	=37	=37	=37	=37	=37	=37
*tremolo	*	*	*	*	*	*	*
16C/LL	.	16e\LL	.	16g/LL	.	16cc\LL	.
16C/	.	16e\	.	16cc/	.	16cc\	.
16C/	.	16f\	.	16bn/	.	16dd\	.
16C/JJ	.	16g\JJ	.	16b-X/JJ	.	16ee\JJ	.
*Xtremolo	*	*	*	*	*	*	*
16F\LL	.	16f\LL	.	16a/LL	.	16ff\LL	.
16B-\	.	16g\	.	16cc/	.	16ee\	.
16A\	.	16f\	.	16cc/	.	16ff\	.
16G\JJ	.	16e\JJ	.	16cc/JJ	.	16gg\JJ	.
=38	=38	=38	=38	=38	=38	=38	=38
*	*	*	*	*tremolo	*	*	*
16F\LL	.	16f\LL	.	16cc\LL	.	16aa\LL	.
16G\	.	16e\	.	16cc\	.	16gg\	.
16A\	.	16f\	.	16cc\	.	16ff\	.
16A\JJ	.	16g\JJ	.	16cc\JJ	.	16ee-X\JJ	.
*	*	*	*	*Xtremolo	*	*	*
!LO:TX:t=P:problem=mixed beam	!	!	!	!	!	!	!
16B-\LL	.	16f\LL	.	16b-/LL	<	16dd\LL	<
16BB-/	.	16f\	<	16a/	.	16dd\	.
16BB-/	.	16f\	.	16g#X/	.	16dd\	.
16BB-/JJ	.	16d\JJ	[[	16g#/JJ	[[	16dd\JJ	[[
=39	=39	=39	=39	=39	=39	=39	=39
*	*	*tremolo	*	*tremolo	*	*	*
16AA/LL	.	16e\LL	f	16a/LL	f	16cc#X\LL	f
16C#X/	.	16e\	.	16a/	.	16cc#\	.
16F/	.	16e\	.	16a/	.	16cc#\	.
16AA/JJ	.	16e\JJ	.	16a/JJ	.	16cc#\JJ	.
*	*	*Xtremolo	*	*Xtremolo	*	*	*
!	!	!	!LO:HP:b:t=dim	!	!LO:HP:b:t=dim	!	!LO:HP:b:t=dim
16GG/LL	.	16e\LL	>	16b-/LL	>	16ccn\LL	>
16GG/	.	16e\	.	16b-/	.	16cc\	.
16Cn/	.	16e\	.	16b- 16g/	.	16cc\	.
16C/JJ	.	16e\JJ	.	16b-JJ 16g/	.	16cc\JJ	.
=40	=40	=40	=40	=40	=40	=40	=40
16FF/LL	.	16f\LL	.	16aLL 16f/	.	16aa\LL	.
16GG/	.	16e\	.	16cc/	.	16gg\	.
16AA/	.	16f\	.	16cc/	.	16ff\	.
16AA/JJ	.	16g\JJ	.	16cc#X/JJ	.	16ee\JJ	.
16D/LL	.	16f\LL	.	16dd\LL	.	16dd\LL	.
16C/	.	16a-X\	.	16f\	.	16dd\	.
16BBn/	.	16g\	.	16f\	.	16dd\	.
16BB/JJ	.	16f\JJ	.	16dd\JJ	.	16gg\JJ	.
=41	=41	=41	=41	=41	=41	=41	=41
16C/LL	.	16e\LL	.	16cc\LL	.	16cc\LL	.
16C/	.	16e\	.	16cc\	.	16cc\	.
16C/	.	16f\	.	16bn\	.	16dd\	<
16C#X/JJ	.	16g\JJ	<	16b-X\JJ	<	16ee\JJ	.
16D/LL	.	16f\LL	.	16a\LL	.	16ff\LL	.
16D/	.	16f\	.	16ff\	.	16aa\	.
16D/	.	16f\	.	16ff\	.	16bb-\	.
.	.	.	[	.	.	.	.
!	!	!LO:TX:b:t=as	!	!	!	!	!
16D-X/JJ	.	16a-X\JJ	.	16ff\JJ	[	16bbn\JJ	[
=42	=42	=42	=42	=42	=42	=42	=42
16C\LL	<	4an\	f	4ff\	f	4ccc\	f
16C\	.	.	.	.	.	.	.
16F\	.	.	.	.	.	.	.
16A\JJ	.	.	.	.	.	.	.
4c\	[	4r	.	4r	.	16r	.
.	.	.	.	.	.	16A/LL	p
.	.	.	.	.	.	16c/	.
.	.	.	.	.	.	16f/JJ	.
=43	=43	=43	=43	=43	=43	=43	=43
16r	.	16r	.	16r	.	16a/LL	.
16C/LL	p	16Bn/LL	p	16f/LL	p	16a-X/	.
16C/	.	16B-X/	.	16f/	.	16g/	.
16C/JJ	.	16B-/JJ	.	16e/JJ	.	16g/JJ	.
8F\	.	8A/	.	8f/	.	8f/	.
8r	.	8r	.	8r	.	8r	.
*clefG2	*	*	*	*	*	*	*
!!LO:LB:g=original
=44||	=44||	=44||	=44||	=44||	=44||	=44||	=44||
!	!	!	!	!	!	!LO:TX:t=P:problem=dopisane niebieskim atramentem "Piu lento"	!
!	!	!	!	!	!	!LO:TX:t=P:problem=dopisane ołówkiem "Piū lento"	!
!	!	!LO:TX:b:t=arco e legatiſsimo:dur=7es:problem=text with extention lines	!	!LO:TX:b:t=arco e legatiſsimo:dur=9es:problem=text with extention lines	!	!LO:TX:b:t=arco e legatiſsimo:dur=4q:problem=text with extention lines	!
(16aa\LL	.	8r	.	8r	.	(16cc\LL	.
16gg\	.	.	.	.	.	16cc#X\	.
16ff\	.	16r	.	16r	.	16dd\	.
16ee\JJ	.	(>16c#X/	.	(16a/	.	16ee\JJ	.
8ff\L	.	16d/LL	.	16a/LL	.	4ff\	.
.	.	16cn/	.	16a-X/J	.	.	.
8gg\J)	.	16Bn/	.	[8g/J	.	.	.
.	.	16G/JJ	.	.	.	.	.
=45	=45	=45	=45	=45	=45	=45	=45
(8.cc\L	.	4c/)	.	16g/LL]	.	8ee\L	.
.	.	.	.	16cc/	.	.	.
.	.	.	.	16bn/	.	16ff\L)	.
32dd\LL	.	.	.	16b-X/JJ	.	(16gg\JJ	.
32ee\JJJ	.	.	.	.	.	.	.
8ff\L	.	(16F/LL	.	8a/L)	.	[4ff\	.
.	.	16E/	.	.	.	.	.
8aa\J)	.	16F/	.	([>8cc/J	.	.	.
.	.	16E/JJ	.	.	.	.	.
=46	=46	=46	=46	=46	=46	=46	=46
(16ccc\LL	.	[4F/	.	16cc/LL]	.	4ff\_	.
16bb-\	.	.	.	16dd/	.	.	.
16aa\	.	.	.	16cc/	.	.	.
16gg\JJ	.	.	.	16b-/JJ	.	.	.
8ff\L	.	16F/LL]	.	8a/)	.	16ff\LL]	.
.	.	16A/J	.	.	.	16ff\	.
8gg\J)	.	8B-/J)	.	8r	.	16ee\	.
.	.	.	.	.	.	16dd\JJ)	.
=47	=47	=47	=47	=47	=47	=47	=47
(4aa\	<	(16A/LL	.	2e/	<	([4cc#X\	<
.	.	16G#X/	.	.	.	.	.
.	.	16B-/	.	.	.	.	.
.	[	16A/JJ	.	.	[	.	[
4bb-\)	>	4Gn/)	.	.	>	16dd-X\LL]	>
.	.	.	.	.	.	16ccn\	.
.	]	.	.	.	]	16dd-\	]
.	.	.	.	.	.	16cc\JJ	.
=48	=48	=48	=48	=48	=48	=48	=48
(16aa\LL	.	[2F/	.	(16f/LL	]	16cc\LL	.
16gg\	.	.	.	16b-/	.	16ee\	.
16ff\	.	.	.	16a/	.	16ff\	.
16ee\JJ	.	.	.	16dd-X/JJ	.	16gg\JJ	.
8ff\L	.	.	.	16cc/LL	.	16aa\KL	.
.	.	.	.	16a/J	.	8ff\	.
8gg\J)	.	.	.	8b-/J)	.	.	.
.	.	.	.	.	.	[16dd\Jk	.
=49	=49	=49	=49	=49	=49	=49	=49
(4ee\	.	4F/_	.	(4g/	.	16dd\LL]	.
.	.	.	.	.	.	(16cc\)	.
.	.	.	.	.	.	16bn\	.
.	.	.	.	.	.	16b-X\JJ	.
16ff\LL)	.	8F/]	.	8f/)	.	8a/)	.
(16cc\	.	.	.	.	.	.	.
16ff\	.	8r	.	8r	.	8r	.
16aa\JJ	.	.	.	.	.	.	.
=50	=50	=50	=50	=50	=50	=50	=50
4ccc\)	.	[2C/	.	16r	.	4r	.
.	.	.	.	(16cc/LL	.	.	.
.	.	.	.	16a/	.	.	.
.	.	.	.	16f/JJ	.	.	.
16r	.	.	.	8.c/L	.	16r	.
!	!	!	!	!	!	!LO:TX:t=P:problem=mixed beam	!
16a\LL	.	.	.	.	.	(8ff^<\L	.
16cc\	.	.	.	.	.	.	.
16ff\JJ	.	.	.	16Bn/Jk)	.	16d/Jk)	.
=51	=51	=51	=51	=51	=51	=51	=51
8.aa\L	.	16C/LL]	.	(4B-X/	.	(4e/	.
.	.	16D-X^>/J	.	.	.	.	.
.	.	8C/J	.	.	.	.	.
16gg\Jk	.	.	.	.	.	.	.
8ff\	.	8F/	.	8A/)	.	8f/)	.
8r	.	8r	.	8r	.	8r	.
=52||	=52||	=52||	=52||	=52||	=52||	=52||	=52||
!	!	!	!	!	!	!LO:TX:t=P:problem="Tempo Io" poprawione niebieskim atramantem"	!
!	!	!	!	!	!	!LO:TX:b:t=pizz&colon;	!
!	!	!LO:TX:b:t=pizz&colon;	!	!LO:TX:b:t=pizz&colon;	!	!LO:TX:B:a:t=Tempo Io	!
4r	pp	4r	pp	4r	pp	16cc\LL	pp
.	.	.	.	.	.	16b-\	.
.	.	.	.	.	.	16a\	.
.	.	.	.	.	.	16g\JJ	.
16r	.	16r	.	16r	.	16f#X/LL	.
*clefF4	*	*	*	*	*	*	*
!LO:TX:b:t=pizz&colon;	!	!	!	!	!	!	!
16D\LL	.	16c/LL	.	16e-X/LL	.	16f#/	.
16D\	.	16B-/	.	16d/	.	16f#/	.
16D\JJ	.	16A/JJ	.	16c/JJ	.	16f#/JJ	.
=53	=53	=53	=53	=53	=53	=53	=53
16G\LL	.	16G\LL	.	16B-/LL	.	16g\LL	.
16F#X\	.	16d\	.	16d/	.	16a\	.
16G\	.	16d\	<	16g/	<	16b-\	<
16Fn\JJ	.	16d\JJ	.	16g/JJ	.	16bn\JJ	.
16En\LL	.	16c\LL	.	16g/LL	.	16cc\LL	.
16E-X\	.	16g\	.	16b-/	.	16cc#X\	.
16D\	.	16g\	.	16b-/	.	16dd\	.
16C#X\JJ	.	16g\JJ	[[	16b-/JJ	[[	16ee\JJ	[[
!!LO:LB:g=original
=54	=54	=54	=54	=54	=54	=54	=54
*tremolo	*	*	*	*	*	*	*
16D\LL	.	16g\LL	f	16b-/LL	f	16dd\LL	f
16D\	.	16d\	.	16b-/	.	16gg\	.
16D\	.	16d\	.	16g/	.	16a\	.
!	!	!	!LO:HP:t=dimm	!	!LO:HP:t=dimi	!	!LO:HP:t=dimm
16D\JJ	.	16A\JJ	>	16f#X/JJ	>	16ee-X\JJ	>
16D\LL	.	16B-\LL	.	16g/LL	.	16dd\LL	.
16D\	.	16d\	.	16g/	.	16b-\	.
16D\	.	16d\	.	16g/	.	16a\	.
16D\JJ	.	16c\JJ	.	16f#/JJ	.	16a\JJ	.
=55	=55	=55	=55	=55	=55	=55	=55
16E-X\LL	.	16B-\LL	.	16g/LL	.	16g\LL	.
16E-\	.	16B-\	.	16e-X/	.	16g\	.
!	!	!LO:TX:t=cres_:problem=dynamics with extention lines	!LO:HP:t=cres_	!LO:TX:t=cres_:problem=dynamics with extention lines	!LO:HP:t=cres_	!	!
16E-\	.	16e-X\	<	16g/	<	16b-\	.
!	!	!	!	!	!	!LO:TX:t=cres_:problem=dynamics with extention lines	!LO:HP:t=cres_
16E-\JJ	.	16g\JJ	.	16b-/JJ	.	16ee-X\JJ	<
*Xtremolo	*	*	*	*	*	*	*
16E-\LL	.	16b-\LL	.	16ee-X\LL	.	16gg\LL	.
16E-\	.	16g\	.	16b-\	.	16ee-\	.
16En\	.	16g\	.	16b-\	.	16dd-X\	.
16E\JJ	.	16g\JJ	[[	16b-\JJ	[[	16dd-\JJ	[[
=56	=56	=56	=56	=56	=56	=56	=56
*tremolo	*	*tremolo	*	*tremolo	*	*	*
16F\LL	.	16f\LL	f	16b-\LL	f	16ddn\LL	f
16F\	.	16f\	.	16b-\	.	16dd\	.
16F\	.	16f\	.	16b-\	.	16dd\	.
16F\JJ	.	16f\JJ	.	16b-\JJ	.	16dd\JJ	.
*Xtremolo	*	*Xtremolo	*	*Xtremolo	*	*	*
16F\LL	.	16f\LL	.	16b-\LL	.	16dd\LL	.
16F\	.	16f\	.	16b-\	.	16ee-X\	.
16F#X\	.	16d\	.	16a\	.	16cc\	.
16F#\JJ	.	16d\JJ	.	16a\JJ	.	16dd\JJ	.
=57	=57	=57	=57	=57	=57	=57	=57
*	*	*tremolo	*	*	*	*	*
16G\LL	.	16d\LL	.	16g/LL	.	16b-\LL	.
16G\	.	16d\	.	16g/	.	16cc\	.
16A\	.	16d\	.	16f#X/	.	16a\	.
16A\JJ	.	16d\JJ	.	16f#/JJ	.	16b-\JJ	.
!LO:TX:t=P:problem=mixed beam	!	!	!	!	!	!	!
16B-\LL	.	16d\LL	.	16g/LL	.	16g\LL	.
16BB-/	.	16d\	.	16g/	.	16gg\	.
16BBn/	.	16d\	.	16g#X/	.	16ff\	.
16BB/JJ	.	16d\JJ	.	16g#/JJ	.	16ff\JJ	.
*	*	*Xtremolo	*	*	*	*	*
=58	=58	=58	=58	=58	=58	=58	=58
*tremolo	*	*	*	*	*	*	*
16C/LL	.	16c/LL	.	16a/LL	.	16ff\LL	.
!	!	!	!LO:HP:t=dimm	!	!	!	!
16C/	.	16A/	>	16f/	.	16cc\	.
!	!	!	!	!	!LO:HP:t=dimm	!	!LO:HP:t=dimi
16C/	.	16B-/	.	16e/	>	16dd\	>
16C/JJ	.	16B-/JJ	.	16e/JJ	.	16dd-X\JJ	.
16C/LL	.	16A/LL	.	16f/LL	.	16cc\LL	.
16C/	.	16c/	.	16f/	.	16a\	.
16C/	.	16Bn/	.	16f/	.	16g\	.
16C/JJ	.	16B-X/JJ	.	16e/JJ	.	16g\JJ	.
*Xtremolo	*	*	*	*	*	*	*
=59	=59	=59	=59	=59	=59	=59	=59
16F\LL	.	16A/LL	.	16f/LL	.	16f/LL	pp
16F\	.	16B-/	pp	16d-X/	pp	16e/	.
16F\	.	16A/	.	16c/	.	16f/	.
16F\JJ	.	16B-/JJ	.	16d-/JJ	.	16e/JJ	.
8F\	.	8A/	.	8c/	.	8f/	.
8r	.	8r	.	8r	.	8r	.
=60||	=60||	=60||	=60||	=60||	=60||	=60||	=60||
!	!	!	!	!	!	!LO:TX:t=P:problem="più lento" poprawione niebieskim atramentem	!
!LO:TX:b:i:t=espreſ&colon;	!	!	!	!	!	!LO:TX:b:t=arco e legatiſsimo:dur=9es:problem=text with extention lines	!
!LO:TX:a:t=arco e legatiſsimo:dur=9e:problem=text with extention lines	!	!	!	!	!	!LO:TX:B:a:t=più lento	!
(16c\LL	.	2rc	.	4r	.	4r	.
16B-\	.	.	.	.	.	.	.
16A\	.	.	.	.	.	.	.
16G\JJ	.	.	.	.	.	.	.
!	!	!	!	!LO:TX:b:t=arco	!	!	!
4F#X\)	.	.	.	(>4a/	.	16r	.
.	.	.	.	.	.	(16ee-X\LL	.
.	.	.	.	.	.	16dd\	.
.	.	.	.	.	.	16cc\JJ	.
=61	=61	=61	=61	=61	=61	=61	=61
8G\	.	4r	.	8g/	.	16b-\KL	.
.	.	.	.	.	.	8gg\	.
*clefG2	*	*	*	*	*	*	*
(16gg\LL	.	.	.	4d/	.	.	.
16aa\JJ	.	.	.	.	.	16ff#X\Jk	.
8bb-\L)	.	8r	.	.	.	[4gg\	.
!	!	!LO:TX:a:t=arco	!	!	!	!	!
(8cc#X\J	.	(>8E-X^/	.	16g/LL	.	.	.
.	.	.	.	16a/JJ)	.	.	.
=62	=62	=62	=62	=62	=62	=62	=62
8dd\)	.	2D/)	.	(<16b-/LL	.	8.gg\L])	.
.	.	.	.	16cc/	.	.	.
(<16g/LL	.	.	.	16b-/	.	.	.
16a/JJ	.	.	.	16f#X/JJ	.	(16ee-X\Jk	.
!	!	!	!	!	!	!LO:TX:t=P:problem=mixed beam	!
16b-/LL	.	.	.	8g\L	.	8dd\L	.
16cc/	.	.	.	.	.	.	.
16a/	.	.	.	8cc\J)	.	8f#X\J	.
16b-/JJ	.	.	.	.	.	.	.
=63	=63	=63	=63	=63	=63	=63	=63
(8g\L)	.	(>[4.E-X/	<	(8b-/L	.	((2g/)	< > ]]
16gg\L	.	.	.	[8e-X/J	.	.	.
16aa\JJ	.	.	.	.	.	.	.
[4bb-\	.	.	.	16e-/LL]	.	.	.
.	.	.	[[	16d/J	.	.	.
.	.	16E-/LL]	>	8c#X/J	.	.	.
.	.	16En/JJ	.	.	.	.	.
=64	=64	=64	=64	=64	=64	=64	=64
.	.	.	]	.	.	.	.
8bb-\L]	.	4.F/	.	8d/L	.	16f/LL)	.
.	.	.	.	.	.	16b-/JJ	]
&(16b-\L	.	.	.	16d/L	.	4b-/	.
16cc\JJ)	.	.	.	16e-X/JJ	.	.	.
16dd\LL	.	.	.	8f/L	.	.	.
16ee-X\	.	.	.	.	.	.	.
16cc\	.	8F#X/)	.	8e-/J)	.	8a/)	.
16dd\JJ	.	.	.	.	.	.	.
!!LO:LB:g=original
=65	=65	=65	=65	=65	=65	=65	=65
16b-\LL	.	(8G/L	.	(>4d/	.	(8g/L	.
16cc\	.	.	.	.	.	.	.
16a\	.	8A/	.	.	.	8f#X/J	.
16b-\JJ&)	.	.	.	.	<	.	.
8g\L	.	8B-/	.	8B-/L	.	16g/LL	<
.	.	.	.	.	.	(16g/	.
*clefF4	*	*	*	*	*	*	*
[8d\J	>	8D-X/J)	.	8Bn/J	[ >	16a-X/)	[
.	.	.	.	.	.	.	>
.	]]	.	.	.	]]	(16a-/JJ	]]
=66	=66	=66	=66	=66	=66	=66	=66
8d\L]	.	2C/	.	4.c/	.	4an/)	.
(16F\L	.	.	.	.	.	.	.
16G\JJ	.	.	.	.	.	.	.
16A\LL	.	.	.	.	.	8f\L)	.
16B-\	.	.	.	.	.	.	.
16G\	.	.	.	8e/)	.	(16cc\L	.
16A\JJ	.	.	.	.	.	16b-\JJ	.
=67	=67	=67	=67	=67	=67	=67	=67
[4F\)	.	(16F/LL	.	(16f/LL	.	16a/LL	.
.	.	16B-/	.	16d-X/	.	16g/	.
.	.	16A/	.	16c/	.	16f/	.
.	.	16B-/JJ	.	16d-/JJ	.	16e/JJ	.
8F\]	.	8A/)	.	8c/)	.	8f/)	.
8r	.	8r	.	8r	.	8r	.
=68||	=68||	=68||	=68||	=68||	=68||	=68||	=68||
*M2/4	*	*M2/4	*	*M2/4	*	*M2/4	*
*>F	*	*>F	*	*>F	*	*>F	*
!	!	!	!	!	!	!LO:TX:t=P:problem=dopisane niebieskim atramentem "lebhafter"	!
!	!	!	!	!	!	!LO:TX:a:t=Var 3	!
!	!	!	!	!	!	!LO:TX:a:B:t=Un poco piū Vivace	!
!	!	!LO:TX:a:t=Col Baſso 8va	!	!	!	!LO:TX:b:t=prima volta forte e seconda piano:dur=7q:problem=text with extention lines	!
32FF/LLL	f	32F/LLLyy	fy	16.cc\LL	f	16.ccc\LL	f
32EE/	.	32E/yy	.	.	.	.	.
32FF/	.	32F/yy	.	.	.	.	.
32GG/JJJ	.	32G/JJJyy	.	32b-\K	.	32bb-\K	.
32AA/LLL	.	32A/LLLyy	.	16.a\	.	16.aa\	.
32GG#X/	.	32G#X/yy	.	.	.	.	.
32AA/	.	32A/yy	.	.	.	.	.
32C/JJJ	.	32c/JJJyy	.	32g\JJk	.	32gg\JJk	.
!	!	!	!	!LO:TX:b:t=P:problem=dopisane niebieskim atramentem "1m f. 2d. p."	!	!	!
32F\LLL	.	32f\LLLyy	.	8f/L	.	8ff\L	.
32E\	.	32e\yy	.	.	.	.	.
32D\	.	32d\yy	.	.	.	.	.
32C\JJJ	.	32c\JJJyy	.	.	.	.	.
32BBn/LLL	.	32Bn/yy	.	8g/J	.	8gg\J	.
32AA/	.	32A/yy	.	.	.	.	.
32BB/	.	32B/yy	.	.	.	.	.
32GG#X/JJJ	.	32G#X/JJJyy	.	.	.	.	.
=69	=69	=69	=69	=69	=69	=69	=69
32C/LLL	.	32c/LLLyy	.	(8.e/L	.	(8.cc\L	.
32BBn/	.	32Bn/yy	.	.	.	.	.
32D/	.	32d/yy	.	.	.	.	.
32C/JJJ	.	32c/JJJyy	.	.	.	.	.
32BB/LLL	.	32B/LLLyy	.	.	.	.	.
32C/	.	32c/yy	.	.	.	.	.
!	!	!LO:TX:t=P:problem=fragment rozpisany inną ręką	!	!	!	!	!
32BB-X/	.	32B-X/	.	32f/LL	.	32dd\LL	.
32C/JJJ	.	32c/JJJ	.	32g/JJJ	.	32ee\JJJ	.
32AA/LLL	.	32A/LLL	.	8f/L)	.	8ff\L)	.
32C/	.	32c/	.	.	.	.	.
32AA/	.	32A/	.	.	.	.	.
32FF/JJJ	.	32F/JJJ	.	.	.	.	.
32EE/LLL	.	32E/LLL	.	[8cc/J	.	8gg\J	.
32GG/	.	32G/	.	.	.	.	.
32C/	.	32c/	.	.	.	.	.
32E/JJJ	.	32e/JJJ	.	.	.	.	.
=70	=70	=70	=70	=70	=70	=70	=70
32F\LLL	.	32f\LLL	.	16cc\LL]	.	16aa\LL	.
32G\	.	32g\	.	.	.	.	.
32E\	.	32e\	.	16cc#X\	.	16gg\	.
32F\JJJ	.	32f\JJJ	.	.	.	.	.
32D/LLL	.	32d/LLL	.	16dd\	.	16ff\	.
32E/	.	32e/	.	.	.	.	.
32C#X/	.	32c#X/	.	16a\JJ	.	16ee\JJ	.
32AA/JJJ	.	32A/JJJ	.	.	.	.	.
32D/LLL	.	32d/LLL	.	8f/L	.	8dd\L	.
32C#/	.	32c#/	.	.	.	.	.
32D/	.	32d/	.	.	.	.	.
32Cn/JJJ	.	32cn/JJJ	.	.	.	.	.
!LO:TX:t=P:problem=mixed beam	!	!LO:N:vis=16	!	!	!	!	!
32BB-/LLL	.	32B-/LLL	.	16g/L	.	8dd\J	.
!	!	!LO:N:vis=16	!	!	!	!	!
32AA/	.	32A/	.	.	.	.	.
!	!	!LO:N:vis=16	!	!	!	!	!
32BB-/	.	32B-/	.	16g#X/JJ	.	.	.
!	!	!LO:N:vis=16	!	!	!	!	!
32B-/JJJ	.	32B-/JJJ	.	.	.	.	.
=71	=71	=71	=71	=71	=71	=71	=71
32A\LLL	.	8A/	.	4a\	.	(4cc#X\	.
32A\	.	.	.	.	.	.	.
32G#X\	.	.	.	.	.	.	.
32A\JJJ	.	.	.	.	.	.	.
32AA/LLL	.	(4.e\	.	.	.	.	.
32AA/	.	.	.	.	.	.	.
32GG#X/	.	.	.	.	.	.	.
32AA/JJJ	.	.	.	.	.	.	.
32GGn/LLL	.	.	.	4b-\	.	[8dd-X\L)	.
32GG/	.	.	.	.	.	.	.
32FF#X/	.	.	.	.	.	.	.
32GG/JJJ	.	.	.	.	.	.	.
8C/	.	.	.	.	.	32dd-\LL]	.
.	.	.	.	.	.	32cc#\	.
.	.	.	.	.	.	32bn\	.
.	.	.	.	.	.	32cc#\JJJ	.
!!LO:PB:g=original
=72	=72	=72	=72	=72	=72	=72	=72
!	!	!LO:TX:t=P:problem=brak zakończenia łuku	!	!	!	!	!
16.FF/LL	.	4f\)	.	16.a\LL	.	32aa\LLL	.
.	.	.	.	.	.	32gg\	.
.	.	.	.	.	.	32ff\	.
32GG/K	.	.	.	32b-\JK	.	32ee\JJJ	.
16.AA/	.	.	.	8cc\J	.	32ff\LLL	.
.	.	.	.	.	.	32gg\	.
.	.	.	.	.	.	32ff\	.
32AA/JJk	.	.	.	.	.	32ee-X\JJJ	.
8BB-/L	.	4r	.	8b-\L	.	32dd\LLL	.
.	.	.	.	.	.	32cc#X\	.
.	.	.	.	.	.	32ee-\	.
.	.	.	.	.	.	32dd\JJJ	.
8BBn/J	.	.	.	8g\J	.	32gg\LLL	.
.	.	.	.	.	.	32gg\	.
.	.	.	.	.	.	32aa\	.
.	.	.	.	.	.	32gg\JJJ	.
=73	=73	=73	=73	=73	=73	=73	=73
(4C/	.	(4B-/	.	(4g/	.	32ff\LLL	.
.	.	.	.	.	.	32ee\	.
.	.	.	.	.	.	32dd\	.
.	.	.	.	.	.	32cc\JJJ	.
.	.	.	.	.	.	32bn\LLL	.
.	.	.	.	.	.	32cc\	.
.	.	.	.	.	.	32dd\	.
.	.	.	.	.	.	32ee\JJJ	.
16.F\LL)	.	8A/)	.	8f/)	.	32ff\LLL	.
.	.	.	.	.	.	32a\	.
.	.	.	.	.	.	32cc\	.
32c\K	.	.	.	.	.	32ff\JJJ	.
16.A\	.	8r	.	8r	.	32aa\LLL	.
.	.	.	.	.	.	32cc\	.
.	.	.	.	.	.	32ff\	.
32F\JJk	.	.	.	.	.	32aa\JJJ	.
=74	=74	=74	=74	=74	=74	=74	=74
[2C/	.	16.r	.	4r	.	32ccc\LLL	.
.	.	.	.	.	.	32aa\	.
.	.	.	.	.	.	32fff\	.
.	.	32cc\KLL	.	.	.	32ccc\JJJ	.
.	.	16.a\	.	.	.	32aa\LLL	.
.	.	.	.	.	.	32ccc\	.
.	.	.	.	.	.	32aa\	.
.	.	32f\JJk	.	.	.	32ff\JJJ	.
.	.	4c\	.	16.r	.	32cc\LLL	.
.	.	.	.	.	.	32aa\	.
.	.	.	.	.	.	32ff\	.
.	.	.	.	32A/KLL	.	32cc\JJJ	.
.	.	.	.	16.c/	.	32a\LLL	.
.	.	.	.	.	.	32cc\	.
.	.	.	.	.	.	32a\	.
.	.	.	.	32f/JJk	.	32f\JJJ	.
=75	=75	=75	=75	=75	=75	=75	=75
4C/]	.	(4B-/	.	8.a/L	.	32c/LLL	.
.	.	.	.	.	.	(32cc/	.
.	.	.	.	.	.	32bn/	.
.	.	.	.	.	.	32cc/JJJ	.
.	.	.	.	.	.	32cc#X\LLL	.
.	.	.	.	.	.	32dd\	.
.	.	.	.	16g/Jk	.	32dd#X\	.
.	.	.	.	.	.	32ee\JJJ	.
32F\LLL	.	8A/)	.	8f/	.	8ff\)	.
32F\	.	.	.	.	.	.	.
32C\	.	.	.	.	.	.	.
32AA\JJJ	.	.	.	.	.	.	.
8FF/	.	8r	.	8r	.	8r	.
=76:|!|:	=76:|!|:	=76:|!|:	=76:|!|:	=76:|!|:	=76:|!|:	=76:|!|:	=76:|!|:
*>G	*	*>G	*	*>G	*	*>G	*
!	!	!	!LO:DY:rj	!	!	!LO:TX:b:t=prima volta f e seconda piano:dur=4q:problem=text with extention lines	!
4r	.	4r	f	16.cc\LL	f	16.ccc\LL	f
!	!	!	!	!LO:TX:t=P:problem=dopisane niebieskim atramentem "1m fo 2d. p."	!	!	!
.	.	.	.	32b-\K	.	32bb-\K	.
.	.	.	.	16.a\	.	16.aa\	.
.	.	.	.	32g\JJk	.	32gg\JJk	.
32D/LLL	.	32d\LLL	.	8f#X/L	.	8ff#X\L	.
32C#X/	.	32c#X\	.	.	.	.	.
32D/	.	32d\	.	.	.	.	.
32E-X/JJJ	.	32e-X\JJJ	.	.	.	.	.
32D/LLL	.	32d\LLL	.	8f#/J	.	8ff#\J	.
32E-/	.	32e-\	.	.	.	.	.
32D/	.	32d\	.	.	.	.	.
32Cn/JJJ	.	32cn\JJJ	.	.	.	.	.
=77	=77	=77	=77	=77	=77	=77	=77
32BB-/LLL	.	32B-/LLL	.	8g/L	.	8gg\L	.
32D/	.	32d/	.	.	.	.	.
32C/	.	32c/	.	.	.	.	.
32BB-/JJJ	.	32B-/JJJ	.	.	.	.	.
32AA/LLL	.	32A/LLL	.	8f#X/J	.	8aaJ 8dd\	.
32C/	.	32c/	.	.	.	.	.
32BB-/	.	32B-/	.	.	.	.	.
32AA/JJJ	.	32A/JJJ	.	.	.	.	.
8GG/L	.	8G/L	.	32g/LLL	.	8bb-L 8dd\	.
.	.	.	.	32d/	.	.	.
.	.	.	.	32e/	.	.	.
.	.	.	.	32f#/JJJ	.	.	.
8EE-X/J	.	[>8B-/J	.	32g/LLL	.	8cc#X\J	.
.	.	.	.	32f#/	.	.	.
.	.	.	.	32g/	.	.	.
.	.	.	.	32a/JJJ	.	.	.
!!LO:LB:g=original
=78	=78	=78	=78	=78	=78	=78	=78
2DD/	.	4B-/]	.	(8b-/L	.	(32dd\LLL	.
.	.	.	.	.	.	32ee-X\	.
.	.	.	.	.	.	32dd\	.
.	.	.	.	.	.	32cc#X\JJJ	.
.	.	.	.	8g/	.	32dd\LLL	.
.	.	.	.	.	.	32bb-\	.
.	.	.	.	.	.	32aa\	.
.	.	.	.	.	.	32gg\JJJ)	.
.	.	4c/	.	8a/	.	(32ff#X\LLL	.
.	.	.	.	.	.	32ee-\	.
.	.	.	.	.	.	32dd\	.
.	.	.	.	.	.	32cc#\JJJ	.
.	.	.	.	8f#X/J)	.	32b-/LLL	.
.	.	.	.	.	.	32a/	.
.	.	.	.	.	.	32g/	.
.	.	.	.	.	.	32a/JJJ	.
=79	=79	=79	=79	=79	=79	=79	=79
32EE-X/LLL	.	8B-/	.	8g/	.	8g/)	.
32DD/	.	.	.	.	.	.	.
32EE-/	.	.	.	.	.	.	.
32GG/JJJ	.	.	.	.	.	.	.
32BB-/LLL	.	[4.b-\	fz	(4.gg\	fz	4eee-X\	.
32E-X/	.	.	.	.	.	.	.
32BB-/	.	.	.	.	.	.	.
32GG/JJJ	.	.	.	.	.	.	.
32EE-/LLL	.	.	.	.	.	.	.
32EE-/	.	.	.	.	.	.	.
32DD/	.	.	.	.	.	.	.
32EE-/JJJ	.	.	.	.	.	.	.
32EEn/LLL	.	.	.	.	.	8ccc#X\	.
32EE/	.	.	.	.	.	.	.
!LO:TX:b:t=P:problem=# below	!	!	!	!	!	!	!
32DD#X/	.	.	.	.	.	.	.
32EE/JJJ	.	.	.	.	.	.	.
=80	=80	=80	=80	=80	=80	=80	=80
8FF/L	.	8b-\L]	.	32ff\LLL)	.	8ddd\L	.
.	.	.	.	32ff\	.	.	.
.	.	.	.	32gg\	.	.	.
.	.	.	.	32ff\JJJ	.	.	.
8FF#X/	.	8a\	.	32ee-X\LLL	.	8cccn\	.
.	.	.	.	32ee-\	.	.	.
.	.	.	.	32ff\	.	.	.
.	.	.	.	32ee-\JJJ	.	.	.
8GG/	.	8b-\	.	32dd\LLL	.	8bb-\	.
.	.	.	.	32dd\	.	.	.
.	.	.	.	32ee-\	.	.	.
.	.	.	.	32dd\JJJ	.	.	.
8AA/J	.	8d\J	.	32cc\LLL	.	8ff#X\J	.
.	.	.	.	32cc\	.	.	.
.	.	.	.	32dd\	.	.	.
.	.	.	.	32cc\JJJ	.	.	.
=81	=81	=81	=81	=81	=81	=81	=81
4.BB-/	.	([4d\	.	8b-/	.	32gg|\LLL	.
.	.	.	.	.	.	(32gg\	.
.	.	.	.	.	.	32ff#X\	.
.	.	.	.	.	.	32gg\JJJ)	.
.	.	.	.	4g/	.	32bb-|\LLL	.
.	.	.	.	.	.	(32bb-\	.
.	.	.	.	.	.	32aa\	.
.	.	.	.	.	.	32bb-\JJJ)	.
.	.	8.d\L]	.	.	.	32ddd|\LLL	.
.	.	.	.	.	.	(32ddd\	.
.	.	.	.	.	.	32ccc#X\	.
.	.	.	.	.	.	32ddd\JJJ)	.
8BBn/	.	.	.	8g#X/	.	32fff|\LLL	.
.	.	.	.	.	.	(32fff\	.
.	.	32e\LL	.	.	.	32eeen\	.
.	.	32f\JJJ)	.	.	.	32ddd\JJJ)	.
=82	=82	=82	=82	=82	=82	=82	=82
2C/	.	(4f\	.	(>4a/	.	32ccc|\LLL	.
.	.	.	.	.	.	(32bbn\	.
.	.	.	.	.	.	32ddd\	.
.	.	.	.	.	.	32ccc\JJJ	.
.	.	.	.	.	.	32bb-X\LLL	.
.	.	.	.	.	.	32aa\	.
.	.	.	.	.	.	32gg\	.
.	.	.	.	.	.	32ff\JJJ	.
.	.	4g\	.	4b-/	.	32ee\LLL	.
.	.	.	.	.	.	32dd\	.
.	.	.	.	.	.	32cc\	.
.	.	.	.	.	.	32bn\JJJ	.
.	.	.	.	.	.	32cc\LLL	.
.	.	.	.	.	.	32cc#X\	.
.	.	.	.	.	.	32dd\	.
.	.	.	.	.	.	32ee\JJJ)	.
=83	=83	=83	=83	=83	=83	=83	=83
!LO:TX:t=1m	!	!	!	!	!	!	!
*>G1	*	*>G1	*	*>G1	*	*>G1	*
[4FF/	.	32g\LLL	.	32a/LLL)	.	[4ff\	.
.	.	32d\	.	(32b-/	.	.	.
.	.	32c\	.	32a/	.	.	.
.	.	32B-\JJJ	.	32g/JJJ	.	.	.
.	.	32A/LLL	.	32f/LLL	.	.	.
.	.	32B-/	.	32g/	.	.	.
.	.	32A/	.	32f/	.	.	.
.	.	32G/JJJ)	.	32e/JJJ	.	.	.
8FF/]	.	8A/	.	8f/)	.	8ff\]	.
!LO:TX:t=P:problem=brak kreski koniec repetycji	!	!LO:TX:t=P:problem=brak kreski koniec repetycji	!	!LO:TX:t=P:problem=brak kreski koniec repetycji	!	!LO:TX:t=P:problem=brak kreski koniec repetycji	!
8r	.	8r	.	8r	.	8r	.
!!LO:LB:g=original
=84||	=84||	=84||	=84||	=84||	=84||	=84||	=84||
!LO:TX:t=2da	!	!	!	!	!	!	!
*>G2	*	*>G2	*	*>G2	*	*>G2	*
[4FF/	.	(32f\LLL	.	(32a/LLL	.	[4ff\	.
.	.	32d\	.	32b-/	.	.	.
.	.	32c\	.	32a/	.	.	.
.	.	32B-\JJJ	.	32g/JJJ	.	.	.
.	.	32A/LLL	.	32f/LLL	.	.	.
.	.	32B-/	.	32g/	.	.	.
.	.	32A/	.	32f/	.	.	.
.	.	32G/JJJ	.	32e/JJJ	.	.	.
!LO:TX:t=P:problem=mixed beam	!	!	!	!	!	!	!
16FF/LL]	.	8A/)	.	8f/)	.	8ff\]	.
(32F'<\L	.	.	.	.	.	.	.
32E\JJJ	.	.	.	.	.	.	.
32F\LLL	.	8r	.	8r	.	8r	.
32G\	.	.	.	.	.	.	.
32F\	.	.	.	.	.	.	.
32E\JJJ)	.	.	.	.	.	.	.
=85||	=85||	=85||	=85||	=85||	=85||	=85||	=85||
*>H	*	*>H	*	*>H	*	*>H	*
[2F\	mf	2c\	mf	(>2a/	mf	(32eee-X\LLL	mf
.	.	.	.	.	.	32ddd\	.
.	.	.	.	.	.	32fff\	.
.	.	.	.	.	.	32eee-\JJJ	.
.	.	.	.	.	.	32ddd\LLL	.
.	.	.	.	.	.	32ccc\	.
.	.	.	.	.	.	32bb-\	.
.	.	.	.	.	.	32aa\JJJ	.
.	.	.	.	.	.	32gg\LLL	.
.	.	.	.	.	.	32ff\	.
.	.	.	.	.	.	32een\	.
.	.	.	.	.	.	32ff\JJJ	.
.	.	.	.	.	.	32aa\LLL	.
.	.	.	.	.	.	32gg\	.
.	.	.	.	.	.	32ff\	.
.	.	.	.	.	.	32ee-X\JJJ)	.
=86	=86	=86	=86	=86	=86	=86	=86
2F\_	.	2d\	.	2b-/	.	(32dd\LLL	.
.	.	.	.	.	.	32ff\	.
.	.	.	.	.	.	32ee-X\	.
.	.	.	.	.	.	32dd\JJJ	.
.	.	.	.	.	.	32ee-\LLL	.
.	.	.	.	.	.	32ff\	.
.	.	.	.	.	.	32gg\	.
.	.	.	.	.	.	32aa\JJJ	.
.	.	.	.	.	.	32bb-\LLL	.
.	.	.	.	.	.	32ccc\	.
.	.	.	.	.	.	32ddd\	.
.	.	.	.	.	.	32ccc\JJJ	.
.	.	.	.	.	.	32bb-\LLL	.
.	.	.	.	.	.	32aa\	.
.	.	.	.	.	.	32gg\	.
.	.	.	.	.	.	32ff\JJJ)	.
=87	=87	=87	=87	=87	=87	=87	=87
!	!	!LO:TX:t=dim_:problem=dynamics with extention lines	!LO:HP:t=dim_:ext=u	!	!	!	!
2F\_	.	2B-/	>	4g/	.	&((32ff\LLL	.
.	.	.	.	.	.	32een\)	.
.	.	.	.	.	.	(32ee\	.
.	.	.	.	.	.	32dd\JJJ)	.
.	.	.	.	.	.	(32dd\LLL	.
!	!	!	!	!LO:TX:t=dim_:problem=dynamics with extention lines	!LO:HP:t=dim_:ext=u	!LO:TX:t=dim_:problem=dynamics with extention lines	!LO:HP:t=dim_:ext=u
.	.	.	.	.	>	32cc\)	>
.	.	.	.	.	.	(32cc\	.
.	.	.	.	.	.	32bn\JJJ)	.
.	.	.	.	4e/	.	(32cc\LLL&)	.
.	.	.	.	.	.	32cc#X\	.
.	.	.	.	.	.	32ee\	.
.	.	.	.	.	.	32dd\JJJ	.
.	.	.	]	.	]]	32ccn\LLL	]]
.	.	.	.	.	.	32b-X\	.
.	.	.	.	.	.	32a\	.
.	.	.	.	.	.	32g\JJJ	.
=88	=88	=88	=88	=88	=88	=88	=88
!	!	!	!LO:DY:rj	!	!LO:DY:rj	!	!
32F\LLL]	.	(>[2A/	p	(>[2f/)	p	4f/)	.
(32G\	p	.	.	.	.	.	.
32F\	.	.	.	.	.	.	.
32E\JJJ	.	.	.	.	.	.	.
32F\LLL	.	.	.	.	.	.	.
32G\	.	.	.	.	.	.	.
32A\	.	.	.	.	.	.	.
32G\JJJ	.	.	.	.	.	.	.
32F\LLL	.	.	.	.	.	4r	.
32E\	.	.	.	.	.	.	.
32D\	.	.	.	.	.	.	.
32C\JJJ	.	.	.	.	.	.	.
32BBn/LLL	.	.	.	.	.	.	.
32E/	.	.	.	.	.	.	.
32C/	.	.	.	.	.	.	.
32AA/JJJ)	.	.	.	.	.	.	.
=89	=89	=89	=89	=89	=89	=89	=89
[4FF/	.	16.A/LL]	.	4f/_	.	(16.ee-X\LL	.
.	.	32B-/K	.	.	.	32dd\K	.
.	.	16.c/	.	.	.	16.cc\	.
.	.	32d/JJk	.	.	.	32b-\JJk	.
!	!LO:HP:a	!	!	!	!	!	!
(32FF/LLL]	<	4c/	.	16.f/LL]	.	4a/)	.
32EE/	.	.	.	.	.	.	.
32FF/	.	.	.	.	.	.	.
32EE/JJJ	.	.	.	32g-X/K	.	.	.
32FF/LLL	[	.	.	16.f/	.	.	.
!	!LO:HP:a	!	!	!	!	!	!
32EE/	>	.	.	.	.	.	.
32FF/	.	.	.	.	.	.	.
32EE/JJJ	.	.	.	32e-X/JJk	.	.	.
=90	=90	=90	=90	=90	=90	=90	=90
.	]	.	.	.	.	.	.
[4FF/	.	(16.B-/LL)	.	2d/)	.	([4b-/	.
.	.	32F/K	.	.	.	.	.
.	.	16.G/	.	.	.	.	.
.	.	32A/JJk	.	.	.	.	.
!	!LO:HP:a	!	!	!	!	!	!
32FF/LLL]	<	4B-/)	.	.	.	16.b-/LL]	.
32EE/	.	.	.	.	.	.	.
32FF/	.	.	.	.	.	.	.
32EEJJJ/	.	.	.	.	.	32a/K	.
!	!LO:HP:a	!	!	!	!	!	!
32FFLLL/	[ >	.	.	.	.	16.g/	.
32EE/	.	.	.	.	.	.	.
32FF/	.	.	.	.	.	.	.
!	!	!	!	!	!	!	!LO:DY:a
32EE/JJJ)	]]	.	.	.	.	32f/JJk)	f
!!LO:LB:g=original
=91	=91	=91	=91	=91	=91	=91	=91
[2FF/	.	(16.B-/LL	.	(16.d-X/LL	.	(>2e/	.
.	.	32A/K	.	32c/K	.	.	.
.	.	16.G/	.	16.B-/	.	.	.
.	.	32F/JJk	.	32A/JJk	.	.	.
.	.	16.G/LL	.	16.B-/LL	.	.	.
.	.	32A/K	.	32c/K	.	.	.
.	.	16.B-/	.	16.d-/	.	.	.
.	.	32G/JJk)	.	32B-/JJk)	.	.	.
=92	=92	=92	=92	=92	=92	=92	=92
!	!	!	!LO:DY:rj	!	!LO:DY:rj	!	!LO:DY:rj
32FF/LLL]	.	[2A/	pp	[>2c/	pp	2f/)	pp
(32GG/	.	.	.	.	.	.	.
32FF/	.	.	.	.	.	.	.
32EE/JJJ	.	.	.	.	.	.	.
32FF/LLL	.	.	.	.	.	.	.
32AA/	.	.	.	.	.	.	.
32C/	.	.	.	.	.	.	.
32AA/JJJ	.	.	.	.	.	.	.
32FF/LLL	.	.	.	.	.	.	.
32GG/	.	.	.	.	.	.	.
32AA/	.	.	.	.	.	.	.
32GG/JJJ	.	.	.	.	.	.	.
32FF/LLL	.	.	.	.	.	.	.
32GG/	.	.	.	.	.	.	.
32FF/	.	.	.	.	.	.	.
32EE-X/JJJ	.	.	.	.	.	.	.
=93	=93	=93	=93	=93	=93	=93	=93
4DD/)	.	2A/_	.	16.c/LL]	.	([>2f#X/	.
.	.	.	.	32d/K	.	.	.
.	.	.	.	16.e-X/	.	.	.
.	.	.	.	32d/JJk	.	.	.
(16.D/LL	.	.	.	4c/	.	.	.
32C#X/K	.	.	.	.	.	.	.
16.D/	.	.	.	.	.	.	.
32D/JJk)	.	.	.	.	.	.	.
=94	=94	=94	=94	=94	=94	=94	=94
*^	*	*	*	*	*	*	*
(<[<4C#X/	8C#\	.	2A/_	.	2c#X/	.	16.f#/LL]	.
.	.	.	.	.	.	.	32g#X/K	.
.	8ryy	.	.	.	.	.	16.a/	.
.	.	.	.	.	.	.	32g#/JJk)	.
16.C#/LL]	4ryy	.	.	.	.	.	([4f#X/	.
32BB#X/K	.	.	.	.	.	.	.	.
16.C#/	.	.	.	.	.	.	.	.
32C#/JJk)	.	.	.	.	.	.	.	.
*v	*v	*	*	*	*	*	*	*
=95	=95	=95	=95	=95	=95	=95	=95
[4Cn/	.	2A/_	.	4d/	.	16.f#/LL]	.
.	.	.	.	.	.	32gn/K	.
.	.	.	.	.	.	16.a/	.
.	.	.	.	.	.	32g/JJk	.
16.C/LL]	.	.	.	[4e-X/	.	(4f#X/	.
32C/K	.	.	.	.	.	.	.
16.C/	.	.	.	.	.	.	.
32C/JJk	.	.	.	.	.	.	.
=96	=96	=96	=96	=96	=96	=96	=96
16.C-X/LL	.	8A/L]	.	2e-/]	.	[4g-X/))	.
32C-/K	.	.	.	.	.	.	.
16.BB-/	.	8B-/J	.	.	.	.	.
32BB-/JJk	.	.	.	.	.	.	.
16.AA/LL	.	4c/	.	.	.	(8g-/L]	.
32AA/K	.	.	.	.	.	.	.
16.AA/	.	.	.	.	.	[8f/J	.
32AA/JJk	.	.	.	.	.	.	.
=97	=97	=97	=97	=97	=97	=97	=97
[2BB-/	.	[4B-/	.	[4d/	.	16.f/LL])	.
.	.	.	.	.	.	(32a/K	.
.	.	.	.	.	.	16.b-/	.
!	!	!	!	!	!	!LO:TX:t=poco cres_:problem=dynamics with extention lines	!LO:HP:t=poco cres_:ext=ud
.	.	.	.	.	.	32cc/JJk	<
!	!	!	!	!LO:TX:t=poco cres_:problem=dynamics with extention lines	!LO:HP:t=poco cres_:ext=ud	!	!
.	.	16.B-/LL]	.	16.d/LL]	<	[4dd\	.
!	!	!LO:TX:t=poco cres_:problem=dynamics with extention lines	!LO:HP:t=poco cres_:ext=ud	!	!	!	!
.	.	32F/K	<	32d/K	.	.	.
.	.	16.F/	.	16.d/	.	.	.
.	.	32F/JJk	.	32d/JJk	.	.	.
=98	=98	=98	=98	=98	=98	=98	=98
2BB-/_	.	[4F/	.	[4d/	.	(16.dd\LL])	.
.	.	.	.	.	.	32cc#X\K	.
.	.	.	.	.	.	16.dd\	.
.	.	.	.	.	.	32ee\JJk	.
.	.	(16.F/LL]	.	(16.d/LL]	.	[4ff\	.
.	.	32E/K	.	32c#X/K	.	.	.
.	.	16.F/	.	16.d/	.	.	.
.	.	32G/JJk	.	32e/JJk	.	.	.
=99	=99	=99	=99	=99	=99	=99	=99
4BB-/_	.	[2A-X/)	.	[2f/)	.	16.ff\LL])	.
.	.	.	.	.	.	(32ee\K	.
.	.	.	.	.	.	16.ff\	.
.	.	.	.	.	.	32gg\JJk	.
16.BB-/LL]	.	.	.	.	.	[4aa-X\	.
32BB-/K	.	.	.	.	.	.	.
16.BBn/	.	.	.	.	.	.	.
32BB/JJk	.	.	[[	.	[[	.	[[
!!LO:LB:g=original
=100	=100	=100	=100	=100	=100	=100	=100
16.C/LL	.	2A-/]	f	2f/_	f	4.aa-\])	f
!	!	!LO:TX:t=dim_:problem=dynamics with extention lines	!LO:HP:t=dim_:ext=ud	!LO:TX:t=dim_:problem=dynamics with extention lines	!LO:HP:t=dim_:ext=ud	!LO:TX:t=dim_:problem=dynamics with extention lines	!LO:HP:t=dim_:ext=ud
32C/K	.	.	>	.	>	.	>
16.D-X/	.	.	.	.	.	.	.
32D-/JJk	.	.	.	.	.	.	.
16.DnX/LL	.	.	.	.	.	.	.
32D/K	.	.	.	.	.	.	.
16.D-X/	.	.	.	.	.	(8bn\	.
32D-/JJk	.	.	]]	.	]]	.	]]
=101	=101	=101	=101	=101	=101	=101	=101
[2C/	.	16.An/LL	p	16.f/LL]	.	[4cc\	p
.	.	(32A/K	.	(32f/K	p	.	.
.	.	16.G#X/	.	16.e/	.	.	.
.	.	32A/JJk	.	32f/JJk	.	.	.
.	.	4c/)	.	4a/)	.	16.cc\LL]	.
.	.	.	.	.	.	32cc\K	.
.	.	.	.	.	.	16.dd\	.
.	.	.	.	.	.	32cc\JJk)	.
=102	=102	=102	=102	=102	=102	=102	=102
2C/]	.	(16.B-/LL	.	(16.g/LL	.	[4cc\	.
.	.	32G/K	.	32e/K	.	.	.
.	.	16.F#X/	.	16.c#X/	.	.	.
.	.	32G/JJk	.	32d/JJk	.	.	.
.	.	4B-/)	.	4g/)	.	(16.cc\LL]	.
.	.	.	.	.	.	32cc\K	.
!	!	!	!	!	!	!LO:N:vis=16	!
.	.	.	.	.	.	16.dd-X\	.
.	.	.	.	.	.	32e\JJk)	.
=103	=103	=103	=103	=103	=103	=103	=103
16.FF/LL	.	4A/	.	4f/	.	[2f/	.
32FF/K	.	.	.	.	.	.	.
16.FF/	.	.	.	.	.	.	.
32FF/JJk	.	.	.	.	.	.	.
!	!	!LO:TX:t=dim_:problem=dynamics with extention lines	!LO:HP:t=dim_:ext=ud	!LO:TX:t=dim_:problem=dynamics with extention lines	!LO:HP:t=dim_:ext=ud	!LO:TX:t=dim_:problem=dynamics with extention lines	!LO:HP:t=dim_:ext=ud
4FF/	.	(16.B-/LL	>	(16.d-X/LL	>	.	>
.	.	32B-/K	.	32d-/K	.	.	.
.	.	16.A/	.	16.c/	.	.	.
.	.	32G/JJk	]]	32B-/JJk	]]	.	]]
=104	=104	=104	=104	=104	=104	=104	=104
16.FF/LL	.	4F/)	.	4A/)	.	2f/_	.
32FF/K	.	.	.	.	.	.	.
16.FF/	.	.	.	.	.	.	.
32FF/JJk	.	.	.	.	.	.	.
[4FF/	.	(16.B-/LL	.	(16.d-X/LL	.	.	.
.	.	32B-/K	.	32d-/K	.	.	.
.	.	16.A/	.	16.c/	.	.	.
.	.	32G/JJk	.	32B-/JJk	.	.	.
=105	=105	=105	=105	=105	=105	=105	=105
2FF/_	.	[2F/)	.	[2A/)	.	16.f/LL]	.
.	.	.	.	.	.	(32f/K	.
.	.	.	.	.	.	16.a/	.
.	.	.	.	.	.	32cc/JJk	.
.	.	.	.	.	.	16.ff\LL	.
.	.	.	.	.	.	32ff\K	.
.	.	.	.	.	.	16.aa\	.
.	.	.	.	.	.	32ccc\JJk	.
=106	=106	=106	=106	=106	=106	=106	=106
4FF/]	.	4F/]	.	4A/]	.	4fff\)	.
16.c\LL	.	16.b-\LL	.	16.ee\LL	pp	16.ccc\LL	pp
32c\K	.	32b-\K	.	32ee\K	.	32ccc\K	.
16.c\	.	16.b-\	.	16.ee\	.	16.ccc\	.
32c\JJk	.	32b-\JJk	.	32ee\JJk	.	32ccc\JJk	.
=107	=107	=107	=107	=107	=107	=107	=107
4f\	.	4a\	.	4ff\	.	4aa\	.
!	!	!LO:TX:b:t=pizz&colon;	!	!LO:TX:b:t=pizz&colon;	!	!LO:TX:b:t=pizz&colon;	!
4C/	.	4B-/	.	4e/	.	4g/	.
=108	=108	=108	=108	=108	=108	=108	=108
4FF/	.	4A/	.	4f/	.	4f/	.
!	!	!LO:TX:b:t=riten&colon;	!	!	!	!LO:TX:b:t=riten&colon;	!
!LO:TX:a:t=arco	!	!LO:TX:a:t=arco	!	!LO:TX:a:t=arco	!	!LO:TX:a:t=arco	!
[4FF/	.	16.A/LL	.	(16.c/LL	.	[4f/	.
.	.	32B-/K	.	32d/K	.	.	.
.	.	16.A/	.	16.c/	.	.	.
.	.	32G#X/JJk	.	32Bn/JJk)	.	.	.
=109	=109	=109	=109	=109	=109	=109	=109
2FF;/]	<	2A;/	<	2c;/	.	2f;/]	<
.	[ >	.	[ >	.	.	.	[ >
.	]	.	]	.	.	.	]
==	==	==	==	==	==	==	==
*-	*-	*-	*-	*-	*-	*-	*-
!!!system-decoration: [s1,s2,s3,s4]
!!!RDF**kern: > = above
!!!RDF**kern: < = below
!!!RDF**kern: | = vertical stroke
!!!AIN: 1 alto 3 cello
!!!ENC: Andrzej Kubiczek
!!!END: 2021-04-15
!!!ENC: Berenika Jozajtis
!!!END: 2021-04-06
